src/img/favicon.svg

<svg width="29" height="25" viewBox="0 0 29 25" fill="none" xmlns="http://www.w3.org/2000/svg">
<g clip-path="url(#clip0_14680_326)">
<path d="M25.698 0.706121C25.6421 0.670704 25.5872 0.643621 25.5323 0.615496C24.8601 0.260047 24.1116 0.0755097 23.3521 0.0779962H23.3438C22.5131 0.0792824 21.6971 0.298929 20.9767 0.715159C20.2564 1.13139 19.6568 1.72975 19.2372 2.45091L19.2248 2.47383C18.8852 3.06258 18.6794 3.7196 18.622 4.39779L18.621 4.4155H8.67812L7.56576 1.71862C7.31603 1.10816 6.8581 0.607238 6.2742 0.305782C5.69029 0.00432619 5.01867 -0.0779133 4.37991 0.0738295L4.39855 0.0696628L1.03662 0.838413L1.2448 1.76133L4.60673 0.992579C5.02497 0.896711 5.46344 0.952263 5.84497 1.14946C6.22651 1.34666 6.52668 1.67287 6.69266 2.0707L6.6968 2.0832L7.66209 4.41654H1.34837L11.9054 15.0342V22.8082C9.45387 22.9832 7.76255 23.7999 7.76255 24.8134V25.002H17.9374V24.8134C17.9374 23.8009 16.243 22.9801 13.7945 22.8082V15.0342L20.3019 8.48945C20.506 8.66341 20.7338 8.82487 20.9741 8.96654L20.9969 8.97904C22.0853 9.60151 23.3744 9.76544 24.5826 9.43501C25.7907 9.10459 26.8198 8.30667 27.4448 7.21559C28.0699 6.1245 28.2402 4.82895 27.9185 3.61198C27.5968 2.39501 26.8093 1.35555 25.7281 0.720704L25.7053 0.708204L25.698 0.706121ZM26.7327 4.35925L24.1496 4.36654L25.4349 2.11654C26.1369 2.66114 26.6014 3.4584 26.7306 4.3405L26.7327 4.35925ZM24.6219 1.64154L23.3366 3.89779L22.0378 1.65508C22.453 1.48292 22.8979 1.39512 23.3469 1.39675C23.8058 1.39675 24.2439 1.48633 24.6447 1.64987L24.6219 1.64154ZM20.3641 3.13008C20.5899 2.73529 20.8778 2.403 21.2185 2.13529L21.2258 2.13008L22.5246 4.37279L19.9477 4.38008C20.0057 3.91237 20.1528 3.48945 20.3724 3.11341L20.3641 3.12904V3.13008ZM4.51455 5.73529H8.20273L8.71023 6.97175H5.74498L4.51455 5.73529ZM19.9405 6.97279H19.0984V6.97904H9.72212L9.21462 5.74258H21.1605L19.9405 6.97279ZM22.0585 8.04154L23.3438 5.78529L24.6426 8.028C24.2563 8.19258 23.8068 8.28841 23.3356 8.28841C22.8757 8.28841 22.4365 8.19779 22.0357 8.03216L22.0585 8.04154ZM26.3163 6.56029C26.0982 6.94403 25.8084 7.28181 25.4629 7.55508L25.4557 7.56029L24.1569 5.31758L26.7337 5.31133C26.6741 5.75648 26.5295 6.18587 26.308 6.57591L26.3174 6.55925L26.3163 6.56029Z" fill="#7E8FDD"/>
</g>
<defs>
<clipPath id="clip0_14680_326">
<rect width="29" height="25" fill="white"/>
</clipPath>
</defs>
</svg>

<svg width="29" height="25" fill="none" xmlns="http://www.w3.org/2000/svg"><g clip-path="url(#a)"><path d="M25.698.706c-.056-.035-.11-.062-.166-.09a4.631 4.631 0 0 0-2.18-.538h-.008c-.83.001-1.647.22-2.367.637a4.78 4.78 0 0 0-1.74 1.736l-.012.023a4.633 4.633 0 0 0-.603 1.924v.018H8.677L7.566 1.718A2.769 2.769 0 0 0 6.274.306 2.745 2.745 0 0 0 4.38.074L4.399.07 1.037.838l.208.923L4.607.993c.418-.096.857-.04 1.238.156.382.198.682.524.848.922l.004.012.965 2.334H1.348l10.557 10.617v7.774c-2.451.175-4.142.992-4.142 2.005v.189h10.175v-.189c0-1.012-1.695-1.833-4.143-2.005v-7.774l6.507-6.545c.204.174.432.336.672.478l.023.012a4.715 4.715 0 0 0 3.586.456 4.743 4.743 0 0 0 2.862-2.22 4.79 4.79 0 0 0 .474-3.603 4.762 4.762 0 0 0-2.19-2.891l-.024-.013-.007-.002zm1.035 3.653-2.583.008 1.285-2.25a3.447 3.447 0 0 1 1.296 2.223l.002.02zm-2.111-2.717-1.285 2.256-1.3-2.243c.416-.172.861-.26 1.31-.258.459 0 .897.09 1.298.253l-.023-.008zM20.364 3.13c.226-.395.514-.727.855-.995l.007-.005 1.299 2.243-2.577.007c.058-.468.205-.89.424-1.267l-.008.016v.001zM4.514 5.735h3.689l.507 1.237H5.745l-1.23-1.237zm15.427 1.238h-.842v.006H9.722l-.507-1.236H21.16l-1.22 1.23zm2.118 1.069 1.285-2.257 1.299 2.243c-.387.165-.836.26-1.307.26-.46 0-.9-.09-1.3-.256l.023.01zm4.258-1.482a3.43 3.43 0 0 1-.854.995l-.007.005-1.299-2.242 2.577-.007c-.06.445-.204.875-.426 1.265l.01-.017-.002.001z" fill="#7E8FDD"/></g><defs><clipPath id="a"><path fill="#fff" d="M0 0h29v25H0z"/></clipPath></defs></svg>
